!!!OTL: Der gepruegelte Ehemann Dei Fra dei wollt zum Tanzplatz geh,
!!!ARE: Europa, Mitteleuropa, Deutschland, Untermainfranken, Spessart
!!!SCT: D0163
!!!YEM: Copyright 1995, estate of Helmut Schaffrath.
**kern
*ICvox
*Ivox
*M2/4
*k[f#]
*G:
{8d
=1
8g
8a
8b
8cc
=2
8dd
8dd
4dd}
=3
{4ee
8gg
8ee
=4
4dd
8r}
{8dd
=5
8dd
8cc
8cc
8cc
=6
8cc
8b
4b}
=7
{8.a
16b
8cc
8a
=8
8b
8cc
8dd}
{8dd
=9
8dd
8cc
8cc
8cc
=10
8cc
8b
4b}
=11
{8.a
16b
8cc
8f#
=12
4g
8r}
==
!!!AGN: Ehestands - Lied
!! Inzipit = Variante zum Lied
!!!ONB: ESAC (Essen Associative Code) Database: DVA
!!!AMT: simple duple
!!!AIN: vox
!!!EED: Helmut Schaffrath
!!!EEV: 1.0
*-
